X:1
L:1/16
M:2/4
K:G
 Bc | dedB G2Bd | cdcB A2g2 | fgfe dfaf | gage d2Bc | dedB G2Bd | cdcB a2g2 | fgfe dfaf | 
 gfga g2 :: Bc | dg2g g2Bc | df2f f2AB | ce2e e2dc | Bcde d2Bc | dg2g g2Bc | df2f f2AB | 
 ce2e e2dc | BGAF G2 :|
